src/pos-icons/trophy-variant-outline.svg

<svg height="24" viewBox="0 0 24 24" width="24" xmlns="http://www.w3.org/2000/svg"><path d="m17 4v-2h-10v2h-5v7c0 1.1.9 2 2 2h3.1c.4 1.96 1.94 3.5 3.9 3.9v2.18c-3 .46-3 2.92-3 2.92h8s0-2.46-3-2.92v-2.18c1.96-.4 3.5-1.94 3.9-3.9h3.1c1.1 0 2-.9 2-2v-7zm-13 7v-5h3v5zm11 1c0 1.65-1.35 3-3 3s-3-1.35-3-3v-8h6zm5-1h-3v-5h3z"/></svg>

<?xml version="1.0" encoding="UTF-8"?><!DOCTYPE svg PUBLIC "-//W3C//DTD SVG 1.1//EN" "http://www.w3.org/Graphics/SVG/1.1/DTD/svg11.dtd"><svg xmlns="http://www.w3.org/2000/svg" xmlns:xlink="http://www.w3.org/1999/xlink" version="1.1" id="mdi-trophy-variant-outline" width="24" height="24" viewBox="0 0 24 24"><path d="M17 4V2H7V4H2V11C2 12.1 2.9 13 4 13H7.1C7.5 14.96 9.04 16.5 11 16.9V19.08C8 19.54 8 22 8 22H16C16 22 16 19.54 13 19.08V16.9C14.96 16.5 16.5 14.96 16.9 13H20C21.1 13 22 12.1 22 11V4H17M4 11V6H7V11L4 11M15 12C15 13.65 13.65 15 12 15S9 13.65 9 12V4H15V12M20 11L17 11V6H20L20 11Z" /></svg>
